!!!OTL: Gr&auml;serin (3-21), S. 73
!!!id: P0993
**kern
*clefG2
*k[b-]
*F:
{8f
=1
4f
4f
=2
8.cc
16cc
8cc
8dd
=3
4cc
8b-
8a
=4
[2g
=5
4g]}
8r
=6
{8cc
=7
8cc
8b-
8a
8g
=8
4f
4g
=9
8f
8e
4d
=10
[2c
=11
4c]}
8r
=12
{8c
=13
4f
4f
=14
4g
4cc
=15
4a
16a
8.g
=16
16g
[4.a
16a]
=17
4a
16a
8.g
=18
[2f
=19
4f]}
8r
==
*-
!!!minrhy: 16
!!!meters: 2/4 ]  ZZ[3
!!!cut: Gr&auml;serin (3-21), S. 73
!!!reg: Lothringen
!!!trd: PINCK, Louis: Verklingende Weisen, Bd3, Metz 1933
!!!rhy1: X_  X__X__  X_.XX_X_  X__X_X_  X___  ^__0_
!!!rhy2: X_  X_X_X_X_  X__X__  X_X_X__  X___  ^__0_
!!!key: P0993  16  F 2/4 ]  ZZ[3
!!!mod: HEPTATONIK IONISCH]  AMBITUS[9
!!!kad: 2-51
!!!akz: 15522_511-5-5_1232311_
!!!fot: 'a__b__c__
!!!for: 'a__b__c__
!!!fok: '^a_\__^a_
!! PHRAS[AUFTAKTIG]
!!!fkt: Verf&uuml;hrung, Standesunterschied
!! LOTH VKL
!! PR[35] 2K[8] 2G[11] 3K[0] 3G[8] 4A[3] 4Ü[0] 5A[3] 6K[0] 6G[0]
!! 7K[0] 7G[0] 8A[0] MEHR[0] SI[32] ABS[37] SR[19] SP[14]
!! ST[12] 2k[8] 2g[16] 3k[0] 3g[5] 4d[0] 4ü[0] 5d[0] 6k[0] 6g[0]
!! 7k[0] 7g[0] 8d[3] mehr[0] si[32] dm[0] sr[24] sp[8]
!! 1F[26] 2F[66] 3F[8] 4F[0] LF[0] 2P[0] 3P[0] 4P[0] TRI[0] DF[3] AB[38]
!! TF[0] U3K[0] U3[0] U4[0] U4Ü[0] U5[3] U6K[0] U6[0] U7K[0] U7[0]
!! N1[16] N2K[0] N2[21] N3K[26] N3[0] N4[11] N4Ü[0] N5[24] N6K[0] N6[0]
!!!n7k: 0] N7[0] O1[0] O2K[0] O2[0] O3K[0] O3[0] HÖ[0
!!!RNB: symbol: &auml;      = a umlaut  (UTF-8: Å„)
!!!RNB: symbol: &uuml;  = u umlaut (UTF-8: Ã¼)
